X:58
T:Reel 58
M:4/4
K:Gmaj
L:1/8
 (3dcB |c>A (3AGA e>G (3AAA |c>A (3AAA e>A (3AGA |e>A (3ABA g>B (3BAB |eaag abagf:||2e>A (3AGA B>G (3AGA |B2G2 G2|d2| (3efe d2 egfg|agfg  (3efg dB|cefa g>f (3efg |eaag agag|e>a (3aga gedB| (3efe dB ABd2|e2fg fgag| (3efe  (3def g2|
